X:445
T: MEIN MAEDCHEN WARD MIR UNGETREU
N: F0832
O: Europa, Mitteleuropa, Deutschland
R: erzaehlendes Volks - Lied, Ballade
M: 2/4
L: 1/16
K: Eb
B2 | B2B2G2E2 | A4F4 | E4z2
B2 | B3Bc2d2 | e2d2c2B
F | B3Bc2d2 | e2d2c2B
e | c2B2A2G2 | F4D4 | E4z2

